apps/scalable/fotowall.svg

<svg xmlns="http://www.w3.org/2000/svg" style="isolation:isolate" width="256" height="256"><defs><filter id="a" width="270.648" height="254.338" x="-7.32" y="2.95" filterUnits="userSpaceOnUse"><feGaussianBlur xmlns="http://www.w3.org/2000/svg" in="SourceGraphic" stdDeviation="4.294"/><feOffset xmlns="http://www.w3.org/2000/svg" dy="4" result="pf_100_offsetBlur"/><feFlood xmlns="http://www.w3.org/2000/svg" flood-opacity=".4"/><feComposite xmlns="http://www.w3.org/2000/svg" in2="pf_100_offsetBlur" operator="in" result="pf_100_dropShadow"/><feBlend xmlns="http://www.w3.org/2000/svg" in="SourceGraphic" in2="pf_100_dropShadow"/></filter></defs><g filter="url(#a)"><linearGradient id="b" x1=".533" x2=".533" y1="1" gradientTransform="matrix(244.648 0 0 228.338 5.676 11.947)" gradientUnits="userSpaceOnUse"><stop offset="0%" stop-color="#7d4698"/><stop offset="100%" stop-color="#c483e4"/></linearGradient><path fill="url(#b)" d="M165.685 11.947c74.055 0 84.639 10.557 84.639 84.544v59.251c0 73.986-10.584 84.543-84.639 84.543h-75.37c-74.055 0-84.639-10.557-84.639-84.543V96.491c0-73.987 10.584-84.544 84.639-84.544h75.37z"/></g><path fill="#FFF" d="M5.676 126.116v29.626c0 73.986 10.584 84.543 84.639 84.543h75.37c74.055 0 84.639-10.557 84.639-84.543v-29.626H5.676z" opacity=".4"/><path fill="#FFF" d="M128 11.947v228.338h37.685c74.055 0 84.639-10.557 84.639-84.543V96.491c0-73.987-10.584-84.544-84.639-84.544H128z" opacity=".2"/><linearGradient id="c" x1="1.071" x2="-.071" y1=".833" y2=".262" gradientTransform="matrix(161.609 0 0 138.526 43.54 55.231)" gradientUnits="userSpaceOnUse"><stop offset="0%" stop-color="#5884f4"/><stop offset="100%" stop-color="#80a3fa"/></linearGradient><path fill="url(#c)" d="M205.149 83.315c0-25.465-2.616-28.205-28.133-28.081H71.672C46.156 55.109 43.54 57.85 43.54 83.315v82.361c0 25.465 2.615 28.08 28.132 28.08h105.344c25.517 0 28.133-2.615 28.133-28.08V83.315z"/><path fill="#FFF" d="M107.101 106.911L71.12 175.873h86.953l-26.594-50.972-7.496 14.368-16.882-32.358zM161.692 76.961c-9.375 0-16.976 7.601-16.976 16.976s7.601 16.976 16.976 16.976 16.976-7.601 16.976-16.976-7.601-16.976-16.976-16.976z" opacity=".6"/><linearGradient id="d" x1=".567" x2=".567" y1="1.071" y2="-.071" gradientTransform="matrix(190.128 0 0 177.452 29.28 41.318)" gradientUnits="userSpaceOnUse"><stop offset="0%" stop-color="#e6eaef"/><stop offset="100%" stop-color="#e6eaef"/></linearGradient><path fill="url(#d)" d="M95.058 41.318c-57.552 0-65.778 8.203-65.778 65.702v46.046c0 57.498 8.226 65.704 65.778 65.704h58.572c57.552 0 65.778-8.206 65.778-65.704V107.02c0-57.499-8.226-65.702-65.778-65.702H95.058zm5.856 17.744h46.86c46.042 0 52.621 5.382 52.621 43.099v30.205c0 37.716-6.579 43.098-52.621 43.098h-46.86c-46.041 0-52.621-5.382-52.621-43.098v-30.205c0-37.717 6.58-43.099 52.621-43.099z"/><path fill="#353635" d="M99.069 41.6l-8.263-5.932-3.696-5.664-4.561-2.895L78.561 18l-2.299 2.067 4.049 6.632 4.56 2.896 3.696 5.664 6.491 6.059-59.167 51.417-3.663-6.097-6.358-4.964-3.53-7.826-3.523-2.128-2.614 2.35 5.874 2.427 3.448 8.3 6.503 4.234 4.555 6.867c.001.001 26.04-30.158 62.486-54.298z" opacity=".25"/><path fill="#FFF5CB" d="M18.818 71.721l3.523 2.128 3.529 7.826 6.358 4.964 3.663 6.096 59.168-51.417-6.492-6.058-3.695-5.665-4.561-2.896-4.049-6.632-.779-1.275-59.168 51.417 2.503 1.512z" opacity=".8"/><g><path fill="#353635" d="M239.797 183.702l-8.263-5.931-3.696-5.664-4.56-2.896-3.989-9.109-2.299 2.067 4.049 6.633 4.56 2.895 3.696 5.664 6.491 6.059-59.167 51.417-3.663-6.096-6.358-4.965-3.53-7.825-3.523-2.129-2.614 2.351 5.875 2.426 3.447 8.301 6.503 4.233 4.555 6.867c.001.001 26.04-30.158 62.486-54.298z" opacity=".25"/><path fill="#FFF5CB" d="M166.599 223.777l6.358 4.964 3.662 6.097 59.168-51.417-6.491-6.059-3.696-5.664-4.56-2.896-4.05-6.633-.779-1.275-59.167 51.417 2.502 1.512 3.523 2.128 3.53 7.826z" opacity=".8"/></g><g opacity=".4"><linearGradient id="e" x1=".517" x2=".517" y2="1"><stop offset="0%" stop-color="#fff"/><stop offset="12.5%" stop-opacity=".098" stop-color="#fff"/><stop offset="92.5%" stop-opacity=".098"/><stop offset="100%" stop-opacity=".498"/></linearGradient><path fill="none" stroke="url(#e)" stroke-linecap="round" stroke-linejoin="round" stroke-width="4.077" d="M165.685 11.947c74.055 0 84.639 10.557 84.639 84.544v59.251c0 73.986-10.584 84.543-84.639 84.543h-75.37c-74.055 0-84.639-10.557-84.639-84.543V96.491c0-73.987 10.584-84.544 84.639-84.544h75.37z" vector-effect="non-scaling-stroke"/></g></svg>

<svg xmlns="http://www.w3.org/2000/svg" style="isolation:isolate" width="256" height="256" viewBox="0 0 256 256">
 <defs>
  <filter id="mUmBbBNDRqnAdZAIYW0eoBOAjcl8o4vC" width="270.648" height="254.338" x="-7.32" y="2.95" filterUnits="userSpaceOnUse">
   <feGaussianBlur xmlns="http://www.w3.org/2000/svg" in="SourceGraphic" stdDeviation="4.294"/>
   <feOffset xmlns="http://www.w3.org/2000/svg" dx="0" dy="4" result="pf_100_offsetBlur"/>
   <feFlood xmlns="http://www.w3.org/2000/svg" flood-opacity=".4"/>
   <feComposite xmlns="http://www.w3.org/2000/svg" in2="pf_100_offsetBlur" operator="in" result="pf_100_dropShadow"/>
   <feBlend xmlns="http://www.w3.org/2000/svg" in="SourceGraphic" in2="pf_100_dropShadow" mode="normal"/>
  </filter>
 </defs>
 <g filter="url(#mUmBbBNDRqnAdZAIYW0eoBOAjcl8o4vC)">
  <linearGradient id="_lgradient_230" x1=".533" x2=".533" y1="1" y2="0" gradientTransform="matrix(244.648,0,0,228.338,5.676,11.947)" gradientUnits="userSpaceOnUse">
   <stop offset="0%" style="stop-color:rgb(125,70,152)"/>
   <stop offset="100%" style="stop-color:rgb(196,131,228)"/>
  </linearGradient>
  <path fill="url(#_lgradient_230)" d="M 165.685 11.947 C 239.74 11.947 250.324 22.504 250.324 96.491 L 250.324 155.742 C 250.324 229.728 239.74 240.285 165.685 240.285 L 90.315 240.285 C 16.26 240.285 5.676 229.728 5.676 155.742 L 5.676 96.491 C 5.676 22.504 16.26 11.947 90.315 11.947 L 165.685 11.947 Z"/>
 </g>
 <g opacity=".4">
  <path fill="#FFFFFF" d="M 5.676 126.116 L 5.676 155.742 C 5.676 229.728 16.26 240.285 90.315 240.285 L 165.685 240.285 C 239.74 240.285 250.324 229.728 250.324 155.742 L 250.324 126.116 L 5.676 126.116 Z"/>
 </g>
 <g opacity=".2">
  <path fill="#FFFFFF" d="M 128 11.947 L 128 240.285 L 165.685 240.285 C 239.74 240.285 250.324 229.728 250.324 155.742 L 250.324 96.491 C 250.324 22.504 239.74 11.947 165.685 11.947 L 128 11.947 Z"/>
 </g>
 <g>
  <linearGradient id="_lgradient_231" x1="1.071" x2="-.071" y1=".833" y2=".262" gradientTransform="matrix(161.609,0,0,138.526,43.54,55.231)" gradientUnits="userSpaceOnUse">
   <stop offset="0%" style="stop-color:rgb(88,132,244)"/>
   <stop offset="100%" style="stop-color:rgb(128,163,250)"/>
  </linearGradient>
  <path fill="url(#_lgradient_231)" d="M 205.149 83.315 C 205.149 57.85 202.533 55.11 177.016 55.234 L 124.344 55.234 L 71.672 55.234 C 46.156 55.109 43.54 57.85 43.54 83.315 L 43.54 165.676 C 43.54 191.141 46.155 193.756 71.672 193.756 L 124.344 193.756 L 177.016 193.756 C 202.533 193.756 205.149 191.141 205.149 165.676 L 205.149 83.315 Z"/>
  <g opacity=".6">
   <path fill="#FFFFFF" d="M 107.101 106.911 L 71.12 175.873 L 104.885 175.873 L 158.073 175.873 L 131.479 124.901 L 123.983 139.269 L 107.101 106.911 Z"/>
  </g>
  <g opacity=".6">
   <path fill="#FFFFFF" d="M 161.692 76.961 C 152.317 76.961 144.716 84.562 144.716 93.937 C 144.716 103.312 152.317 110.913 161.692 110.913 C 171.067 110.913 178.668 103.312 178.668 93.937 C 178.668 84.562 171.067 76.961 161.692 76.961 Z"/>
  </g>
  <linearGradient id="_lgradient_232" x1=".567" x2=".567" y1="1.071" y2="-.071" gradientTransform="matrix(190.128,0,0,177.452,29.28,41.318)" gradientUnits="userSpaceOnUse">
   <stop offset="0%" style="stop-color:rgb(230,234,239)"/>
   <stop offset="100%" style="stop-color:rgb(230,234,239)"/>
  </linearGradient>
  <path fill="url(#_lgradient_232)" d="M 95.058 41.318 C 37.506 41.318 29.28 49.521 29.28 107.02 L 29.28 153.066 C 29.28 210.564 37.506 218.77 95.058 218.77 L 153.63 218.77 C 211.182 218.77 219.408 210.564 219.408 153.066 L 219.408 107.02 C 219.408 49.521 211.182 41.318 153.63 41.318 L 95.058 41.318 Z M 100.914 59.062 L 147.774 59.062 C 193.816 59.062 200.395 64.444 200.395 102.161 L 200.395 132.366 C 200.395 170.082 193.816 175.464 147.774 175.464 L 100.914 175.464 C 54.873 175.464 48.293 170.082 48.293 132.366 L 48.293 102.161 C 48.293 64.444 54.873 59.062 100.914 59.062 Z"/>
  <g>
   <g opacity=".25">
    <path fill="#353635" d="M 99.069 41.6 L 90.806 35.668 L 87.11 30.004 L 82.549 27.109 L 78.561 18 L 76.262 20.067 L 80.311 26.699 L 84.871 29.595 L 88.567 35.259 L 95.058 41.318 L 35.891 92.735 L 32.228 86.638 L 25.87 81.674 L 22.34 73.848 L 18.817 71.72 L 16.203 74.07 L 22.077 76.497 L 25.525 84.797 L 32.028 89.031 L 36.583 95.898 C 36.584 95.899 62.623 65.74 99.069 41.6 Z"/>
   </g>
   <g opacity=".8">
    <path fill="#FFF5CB" d="M 18.818 71.721 L 22.341 73.849 L 25.87 81.675 L 32.228 86.639 L 35.891 92.735 L 95.059 41.318 L 88.567 35.26 L 84.872 29.595 L 80.311 26.699 L 76.262 20.067 L 75.483 18.792 L 16.315 70.209 L 18.818 71.721 Z"/>
   </g>
  </g>
  <g>
   <g opacity=".25">
    <path fill="#353635" d="M 239.797 183.702 L 231.534 177.771 L 227.838 172.107 L 223.278 169.211 L 219.289 160.102 L 216.99 162.169 L 221.039 168.802 L 225.599 171.697 L 229.295 177.361 L 235.786 183.42 L 176.619 234.837 L 172.956 228.741 L 166.598 223.776 L 163.068 215.951 L 159.545 213.822 L 156.931 216.173 L 162.806 218.599 L 166.253 226.9 L 172.756 231.133 L 177.311 238 C 177.312 238.001 203.351 207.842 239.797 183.702 Z"/>
   </g>
   <g opacity=".8">
    <path fill="#FFF5CB" d="M 166.599 223.777 L 172.957 228.741 L 176.619 234.838 L 235.787 183.421 L 229.296 177.362 L 225.6 171.698 L 221.04 168.802 L 216.99 162.169 L 216.211 160.894 L 157.044 212.311 L 159.546 213.823 L 163.069 215.951 L 166.599 223.777 Z"/>
   </g>
  </g>
 </g>
 <g opacity=".4">
  <linearGradient id="_lgradient_233" x1=".517" x2=".517" y1="0" y2="1">
   <stop offset="0%" style="stop-color:rgb(255,255,255)"/>
   <stop offset="12.5%" stop-opacity=".098" style="stop-color:rgb(255,255,255)"/>
   <stop offset="92.5%" stop-opacity=".098" style="stop-color:rgb(0,0,0)"/>
   <stop offset="100%" stop-opacity=".498" style="stop-color:rgb(0,0,0)"/>
  </linearGradient>
  <path fill="none" stroke="url(#_lgradient_233)" stroke-linecap="round" stroke-linejoin="round" stroke-width="4.077" d="M 165.685 11.947 C 239.74 11.947 250.324 22.504 250.324 96.491 L 250.324 155.742 C 250.324 229.728 239.74 240.285 165.685 240.285 L 90.315 240.285 C 16.26 240.285 5.676 229.728 5.676 155.742 L 5.676 96.491 C 5.676 22.504 16.26 11.947 90.315 11.947 L 165.685 11.947 Z" vector-effect="non-scaling-stroke"/>
 </g>
</svg>
